Newaita-dark/apps/scalable/distributor-logo-ubuntu-mate.svg

<?xml version="1.0" encoding="UTF-8"?>
<svg xmlns="http://www.w3.org/2000/svg" xmlns:xlink="http://www.w3.org/1999/xlink" width="512pt" height="512pt" viewBox="0 0 512 512" version="1.1">
<defs>
<radialGradient id="radial0" gradientUnits="userSpaceOnUse" cx="450.908936" cy="189.579361" fx="450.908936" fy="189.579361" r="21.166656" gradientTransform="matrix(0.00000278673,-1.250119,-2.250215,-0.00000162462,712.37043,1017.52527)">
<stop offset="0" style="stop-color:rgb(0%,0%,0%);stop-opacity:0.313725;"/>
<stop offset="0.222222" style="stop-color:rgb(0%,0%,0%);stop-opacity:0.27451;"/>
<stop offset="1" style="stop-color:rgb(0%,0%,0%);stop-opacity:0;"/>
</radialGradient>
<radialGradient id="radial1" gradientUnits="userSpaceOnUse" cx="450.908936" cy="189.579361" fx="450.908936" fy="189.579361" r="21.166656" gradientTransform="matrix(-0.00000278673,1.250119,2.250215,0.00000162462,-204.321898,-120.439713)">
<stop offset="0" style="stop-color:rgb(0%,0%,0%);stop-opacity:0.313725;"/>
<stop offset="0.222222" style="stop-color:rgb(0%,0%,0%);stop-opacity:0.27451;"/>
<stop offset="1" style="stop-color:rgb(0%,0%,0%);stop-opacity:0;"/>
</radialGradient>
<radialGradient id="radial2" gradientUnits="userSpaceOnUse" cx="450.908936" cy="189.579361" fx="450.908936" fy="189.579361" r="21.166656" gradientTransform="matrix(-0.00000278673,-1.250119,2.250215,-0.00000162462,-204.321898,1017.52527)">
<stop offset="0" style="stop-color:rgb(0%,0%,0%);stop-opacity:0.313725;"/>
<stop offset="0.222222" style="stop-color:rgb(0%,0%,0%);stop-opacity:0.27451;"/>
<stop offset="1" style="stop-color:rgb(0%,0%,0%);stop-opacity:0;"/>
</radialGradient>
<radialGradient id="radial3" gradientUnits="userSpaceOnUse" cx="450.908936" cy="189.579361" fx="450.908936" fy="189.579361" r="21.166656" gradientTransform="matrix(0.00000278673,1.250119,-2.250215,0.00000162462,712.3704,-120.43972)">
<stop offset="0" style="stop-color:rgb(0%,0%,0%);stop-opacity:0.313725;"/>
<stop offset="0.222222" style="stop-color:rgb(0%,0%,0%);stop-opacity:0.27451;"/>
<stop offset="1" style="stop-color:rgb(0%,0%,0%);stop-opacity:0;"/>
</radialGradient>
<linearGradient id="linear0" gradientUnits="userSpaceOnUse" x1="255.323059" y1="233.5" x2="255.323044" y2="254.666656" gradientTransform="matrix(0.213761,0,0,1.000095,199.446179,215.020539)">
<stop offset="0" style="stop-color:rgb(0%,0%,0%);stop-opacity:0.27451;"/>
<stop offset="1" style="stop-color:rgb(0%,0%,0%);stop-opacity:0;"/>
</linearGradient>
<linearGradient id="linear1" gradientUnits="userSpaceOnUse" x1="254" y1="-168.666672" x2="254" y2="233.5" >
<stop offset="0" style="stop-color:rgb(68.235294%,83.529412%,50.588235%);stop-opacity:1;"/>
<stop offset="1" style="stop-color:rgb(61.176471%,80%,39.607843%);stop-opacity:1;"/>
</linearGradient>
<linearGradient id="linear2" gradientUnits="userSpaceOnUse" x1="332.931519" y1="-113.244492" x2="174.181503" y2="161.718567" gradientTransform="matrix(0.866025,-0.5,0.5,0.866025,22.2951,138.205019)">
<stop offset="0" style="stop-color:rgb(93.333333%,93.333333%,93.333333%);stop-opacity:1;"/>
<stop offset="1" style="stop-color:rgb(96.078431%,96.078431%,96.078431%);stop-opacity:1;"/>
</linearGradient>
</defs>
<g id="surface1">
<path style=" stroke:none;fill-rule:nonzero;fill:url(#radial0);" d="M 291.070312 448.542969 L 333.40625 448.542969 L 333.40625 427.375 L 291.070312 427.375 Z M 291.070312 448.542969 "/>
<path style=" stroke:none;fill-rule:nonzero;fill:url(#radial1);" d="M 216.980469 448.542969 L 174.640625 448.542969 L 174.640625 469.710938 L 216.980469 469.710938 Z M 216.980469 448.542969 "/>
<path style=" stroke:none;fill-rule:nonzero;fill:url(#radial2);" d="M 216.980469 448.542969 L 174.640625 448.542969 L 174.640625 427.375 L 216.980469 427.375 Z M 216.980469 448.542969 "/>
<path style=" stroke:none;fill-rule:nonzero;fill:url(#radial3);" d="M 291.070312 448.542969 L 333.40625 448.542969 L 333.40625 469.710938 L 291.070312 469.710938 Z M 291.070312 448.542969 "/>
<path style=" stroke:none;fill-rule:nonzero;fill:url(#linear0);" d="M 216.980469 443.25 L 291.070312 443.25 L 291.070312 469.710938 L 216.980469 469.710938 Z M 216.980469 443.25 "/>
<path style="fill-rule:nonzero;fill:url(#linear1);stroke-width:3;stroke-linecap:round;stroke-linejoin:miter;stroke:rgb(20%,20%,20%);stroke-opacity:1;stroke-miterlimit:4;" d="M 253.999182 -168.668487 C 365.054983 -168.668487 455.081542 -78.638022 455.081542 32.417779 C 455.081542 143.47358 365.054983 233.500139 253.999182 233.500139 C 142.943381 233.500139 52.916822 143.47358 52.916822 32.417779 C 52.916822 -78.638022 142.943381 -168.668487 253.999182 -168.668487 Z M 253.999182 -168.668487 " transform="matrix(1.000095,0,0,1.000095,0,215.020531)"/>
<path style=" stroke:none;fill-rule:nonzero;fill:rgb(0%,0%,0%);fill-opacity:0.196078;" d="M 254.023438 448.542969 C 142.613281 448.542969 52.921875 358.851562 52.921875 247.441406 C 52.921875 246.78125 52.929688 246.125 52.933594 245.472656 C 53.984375 355.964844 143.269531 444.605469 254.023438 444.605469 C 364.777344 444.605469 454.0625 355.964844 455.113281 245.472656 C 455.121094 246.125 455.125 246.78125 455.125 247.441406 C 455.125 358.851562 365.433594 448.542969 254.023438 448.542969 Z M 254.023438 448.542969 "/>
<path style=" stroke:none;fill-rule:nonzero;fill:rgb(100%,100%,100%);fill-opacity:0.392157;" d="M 254.023438 46.335938 C 142.613281 46.335938 52.921875 136.027344 52.921875 247.441406 C 52.921875 248.097656 52.929688 248.753906 52.933594 249.410156 C 53.984375 138.914062 143.269531 50.277344 254.023438 50.277344 C 364.777344 50.277344 454.0625 138.914062 455.113281 249.410156 C 455.121094 248.753906 455.125 248.097656 455.125 247.441406 C 455.125 136.027344 365.433594 46.335938 254.023438 46.335938 Z M 254.023438 46.335938 "/>
<path style=" stroke:none;fill-rule:nonzero;fill:rgb(12.941177%,12.941177%,12.941177%);fill-opacity:1;" d="M 254.023438 44.839844 C 141.808594 44.839844 51.421875 135.222656 51.421875 247.441406 C 51.421875 359.65625 141.808594 450.042969 254.023438 450.042969 C 366.238281 450.042969 456.628906 359.65625 456.628906 247.441406 C 456.628906 135.222656 366.238281 44.839844 254.023438 44.839844 Z M 254.023438 47.839844 C 364.628906 47.839844 453.628906 136.832031 453.628906 247.441406 C 453.628906 358.046875 364.628906 447.042969 254.023438 447.042969 C 143.417969 447.042969 54.421875 358.046875 54.421875 247.441406 C 54.421875 136.832031 143.417969 47.839844 254.023438 47.839844 Z M 254.023438 47.839844 "/>
<path style="fill-rule:nonzero;fill:url(#linear2);stroke-width:3;stroke-linecap:round;stroke-linejoin:round;stroke:rgb(12.941177%,12.941177%,12.941177%);stroke-opacity:1;stroke-miterlimit:4;" d="M 275.294023 -121.614387 C 273.548096 -121.594857 271.809981 -121.145681 270.235913 -120.262953 C 267.01747 -118.454532 264.974696 -115.099384 264.845802 -111.40833 L 261.350042 -11.628796 C 261.061007 -3.324901 270.017183 2.057397 277.211809 -2.098456 L 368.863213 -55.015278 C 376.057838 -59.167225 375.878168 -69.615446 368.542931 -73.513511 L 280.379475 -120.376224 C 278.789783 -121.223799 277.03995 -121.633916 275.294023 -121.614387 Z M 253.999182 -87.426245 C 233.922974 -86.906764 213.659284 -81.485406 194.977474 -70.70128 C 176.225359 -59.874189 161.367403 -44.969362 150.868405 -27.763974 L 169.612709 -17.800082 C 178.283756 -31.626886 190.388069 -43.610117 205.562401 -52.370999 C 220.666427 -61.092822 237.016429 -65.584581 253.257065 -66.209521 Z M 252.511043 -44.96155 C 240.113789 -44.246775 227.673571 -40.696333 216.143422 -34.036812 C 204.546873 -27.342139 195.207921 -18.280505 188.380448 -7.824472 L 207.191152 2.174573 C 212.14771 -4.922405 218.709583 -11.078067 226.728349 -15.706532 C 234.676808 -20.299843 243.215055 -22.897251 251.768926 -23.666709 Z M 357.282287 -36.778738 L 338.815301 -26.1196 C 341.596285 -22.502758 344.170258 -18.66328 346.51769 -14.601168 C 365.617429 18.48161 364.430042 57.524756 346.771572 88.322597 L 365.488535 98.270865 C 386.451377 61.247057 387.744222 14.47418 364.847971 -25.182189 C 362.512257 -29.232584 359.981249 -33.099402 357.282287 -36.778738 Z M 119.480778 -31.658133 C 117.734851 -31.638604 115.996735 -31.185522 114.426573 -30.302794 C 111.20813 -28.494373 109.161451 -25.139225 109.032557 -21.452077 L 105.536797 78.331363 C 105.247762 86.631352 114.203938 92.01365 121.398563 87.861703 L 213.053873 34.944881 C 220.244593 30.789028 220.064922 20.344713 212.729685 16.442742 L 124.56623 -30.41997 C 122.976538 -31.26364 121.226705 -31.677663 119.480778 -31.658133 Z M 320.274103 -15.413591 L 301.588387 -4.625559 C 304.693559 -1.293845 307.474544 2.444079 309.857129 6.564779 C 321.359937 26.492564 320.383467 50.084061 309.32593 68.418247 L 328.05461 78.370422 C 342.408708 53.806362 343.48673 22.485134 328.18741 -4.016242 C 325.82826 -8.101789 323.176169 -11.898301 320.274103 -15.413591 Z M 198.895069 54.665654 L 180.209353 65.453687 C 181.802951 69.72281 183.763701 73.921628 186.122851 78.00327 C 201.422171 104.504645 229.087498 119.229801 257.537906 119.081378 L 258.283929 97.884184 C 236.875817 98.294301 215.95594 87.346127 204.453132 67.418343 C 202.074453 63.297643 200.226973 59.020707 198.895069 54.665654 Z M 279.520182 65.363852 C 277.774255 65.383381 276.032234 65.836463 274.462071 66.719191 C 271.243629 68.527612 269.200855 71.878854 269.071961 75.569908 L 265.576201 175.353348 C 265.287166 183.653337 274.239436 189.035635 281.437968 184.883688 L 373.089372 131.966866 C 380.283997 127.811013 380.100421 117.366698 372.765184 113.464727 L 284.605634 66.602015 C 283.015942 65.758345 281.266109 65.344322 279.520182 65.363852 Z M 161.668155 76.15579 L 143.201169 86.818834 C 145.040837 90.998122 147.122669 95.122729 149.46229 99.169217 C 172.358541 138.829492 213.510861 161.096897 256.057579 161.452332 L 256.799696 140.266855 C 221.299179 140.161396 186.892309 121.667069 167.79257 88.588196 C 165.445138 84.526084 163.410176 80.374137 161.668155 76.15579 Z M 161.668155 76.15579 " transform="matrix(1.000095,0,0,1.000095,0,215.020531)"/>
</g>
</svg>

<svg xmlns="http://www.w3.org/2000/svg" width="512pt" height="512pt" viewBox="0 0 512 512"><defs><radialGradient id="a" gradientUnits="userSpaceOnUse" cx="450.909" cy="189.579" fx="450.909" fy="189.579" r="21.167" gradientTransform="matrix(0 -1.25012 -2.25021 0 712.37 1017.525)"><stop offset="0" stop-opacity=".314"/><stop offset=".222" stop-opacity=".275"/><stop offset="1" stop-opacity="0"/></radialGradient><radialGradient id="b" gradientUnits="userSpaceOnUse" cx="450.909" cy="189.579" fx="450.909" fy="189.579" r="21.167" gradientTransform="matrix(0 1.25012 2.25021 0 -204.322 -120.44)"><stop offset="0" stop-opacity=".314"/><stop offset=".222" stop-opacity=".275"/><stop offset="1" stop-opacity="0"/></radialGradient><radialGradient id="c" gradientUnits="userSpaceOnUse" cx="450.909" cy="189.579" fx="450.909" fy="189.579" r="21.167" gradientTransform="matrix(0 -1.25012 2.25021 0 -204.322 1017.525)"><stop offset="0" stop-opacity=".314"/><stop offset=".222" stop-opacity=".275"/><stop offset="1" stop-opacity="0"/></radialGradient><radialGradient id="d" gradientUnits="userSpaceOnUse" cx="450.909" cy="189.579" fx="450.909" fy="189.579" r="21.167" gradientTransform="matrix(0 1.25012 -2.25021 0 712.37 -120.44)"><stop offset="0" stop-opacity=".314"/><stop offset=".222" stop-opacity=".275"/><stop offset="1" stop-opacity="0"/></radialGradient><linearGradient id="e" gradientUnits="userSpaceOnUse" x1="255.323" y1="233.5" x2="255.323" y2="254.667" gradientTransform="matrix(.21376 0 0 1.0001 199.446 215.02)"><stop offset="0" stop-opacity=".275"/><stop offset="1" stop-opacity="0"/></linearGradient><linearGradient id="f" gradientUnits="userSpaceOnUse" x1="254" y1="-168.667" x2="254" y2="233.5"><stop offset="0" stop-color="#aed581"/><stop offset="1" stop-color="#9ccc65"/></linearGradient><linearGradient id="g" gradientUnits="userSpaceOnUse" x1="332.932" y1="-113.244" x2="174.182" y2="161.719" gradientTransform="rotate(-30 269.042 27.5)"><stop offset="0" stop-color="#eee"/><stop offset="1" stop-color="#f5f5f5"/></linearGradient></defs><path d="M291.07 448.543h42.336v-21.168H291.07zm0 0" fill="url(#a)"/><path d="M216.98 448.543h-42.34v21.168h42.34zm0 0" fill="url(#b)"/><path d="M216.98 448.543h-42.34v-21.168h42.34zm0 0" fill="url(#c)"/><path d="M291.07 448.543h42.336v21.168H291.07zm0 0" fill="url(#d)"/><path d="M216.98 443.25h74.09v26.46h-74.09zm0 0" fill="url(#e)"/><path d="M254-168.668c111.055 0 201.082 90.03 201.082 201.086 0 111.056-90.027 201.082-201.083 201.082S52.917 143.474 52.917 32.418s90.026-201.086 201.082-201.086zm0 0" transform="matrix(1.0001 0 0 1.0001 0 215.02)" fill="url(#f)" stroke-width="3" stroke-linecap="round" stroke="#333"/><path d="M254.023 448.543c-111.41 0-201.101-89.691-201.101-201.102 0-.66.008-1.316.012-1.968 1.05 110.492 90.336 199.132 201.09 199.132 110.753 0 200.038-88.64 201.09-199.132.007.652.011 1.308.011 1.968 0 111.41-89.691 201.102-201.102 201.102zm0 0" fill-opacity=".196"/><path d="M254.023 46.336c-111.41 0-201.101 89.691-201.101 201.105 0 .657.008 1.313.012 1.97 1.05-110.497 90.336-199.134 201.09-199.134 110.753 0 200.038 88.637 201.09 199.133.007-.656.011-1.312.011-1.969 0-111.414-89.691-201.105-201.102-201.105zm0 0" fill="#fff" fill-opacity=".392"/><path d="M254.023 44.84c-112.214 0-202.601 90.383-202.601 202.601 0 112.215 90.387 202.602 202.601 202.602 112.215 0 202.606-90.387 202.606-202.602 0-112.218-90.39-202.601-202.606-202.601zm0 3c110.606 0 199.606 88.992 199.606 199.601 0 110.606-89 199.602-199.606 199.602-110.605 0-199.601-88.996-199.601-199.602 0-110.609 88.996-199.601 199.601-199.601zm0 0" fill="#212121"/><path d="M275.294-121.614a10.567 10.567 0 0 0-10.448 10.206l-3.496 99.78c-.289 8.303 8.667 13.685 15.862 9.53l91.651-52.917c7.195-4.152 7.015-14.6-.32-18.499l-88.164-46.862a10.548 10.548 0 0 0-5.085-1.238zm-21.295 34.188c-20.076.52-40.34 5.94-59.022 16.725-18.752 10.827-33.61 25.732-44.109 42.937l18.745 9.964c8.67-13.827 20.775-25.81 35.95-34.571 15.103-8.722 31.453-13.214 47.694-13.839zm-1.488 42.464c-12.397.715-24.837 4.266-36.368 10.925-11.596 6.695-20.935 15.756-27.763 26.213l18.811 9.999c4.957-7.097 11.519-13.253 19.537-17.882 7.949-4.593 16.487-7.19 25.04-7.96zm104.771 8.183l-18.467 10.66a105.388 105.388 0 0 1 7.703 11.518c19.1 33.083 17.912 72.126.254 102.924l18.717 9.948c20.962-37.024 22.255-83.797-.641-123.453a126.145 126.145 0 0 0-7.566-11.597zm-237.801 5.12a10.581 10.581 0 0 0-10.448 10.206l-3.496 99.784c-.29 8.3 8.667 13.683 15.862 9.53l91.655-52.916c7.19-4.156 7.01-14.6-.324-18.502L124.566-30.42a10.592 10.592 0 0 0-5.085-1.238zm200.793 16.245L301.588-4.626a61.647 61.647 0 0 1 8.27 11.19c11.502 19.929 10.525 43.52-.532 61.854l18.729 9.952c14.354-24.564 15.432-55.885.132-82.386a83.352 83.352 0 0 0-7.913-11.398zm-121.379 70.08L180.21 65.454a83.193 83.193 0 0 0 5.914 12.55c15.3 26.5 42.964 41.226 71.415 41.077l.746-21.197c-21.408.41-42.328-10.538-53.83-30.466a61.438 61.438 0 0 1-5.559-12.752zm80.625 10.698a10.572 10.572 0 0 0-10.448 10.206l-3.496 99.783c-.289 8.3 8.663 13.683 15.862 9.53l91.651-52.916c7.195-4.156 7.011-14.6-.324-18.502l-88.16-46.863a10.592 10.592 0 0 0-5.085-1.238zM161.668 76.156l-18.467 10.663c1.84 4.18 3.922 8.304 6.261 12.35 22.897 39.66 64.049 61.928 106.596 62.283l.742-21.185c-35.5-.106-69.908-18.6-89.007-51.679a104.702 104.702 0 0 1-6.125-12.432zm0 0" transform="matrix(1.0001 0 0 1.0001 0 215.02)" fill="url(#g)" stroke-width="3" stroke-linecap="round" stroke-linejoin="round" stroke="#212121"/></svg>
